X: 42034
T: Waltz For A Hat
R: waltz
M: 3/4
K: Dmajor
|:"D"A d f|"A"e/c/ A>F|"Em"G>AB/d/|"A"A2A|"G"B G>B|"D"A F>A|
"Em"G/F/ ED|"A"CC3/2 F/4G/4|"D"Ad>f|"A"g/f/e3/2 d/4e/4|"D"f/e/dA|
"G"B2(3d/c/B/|"D"Ad>A|"Em"B g>f|1 "A"e3|a3:|2 "Em"edB|"A"A2"F#"^A||
|:"Bm"BFF/B/|"F#"cFF/c/|"Bm"dFF/d/|"F#"c3|f^AA/f/|"Em"gBB/g/|
"F#"fc^A|"Bm"B z/B/"F#"F/^A/|"Bm"B/F/D/F/B/d/|"F#m"c/=A/F/A/B/c/|"Bm"d/B/F/B/c/d/|
"A"e2d/c/|"Em"Bg>B|"D"A f>A|"Bm"B/c/dB|1 "A"e2"F#"^A:|2 "A"e3||
"D"Adf|"A"e/c/ A>F|"Em"G>FE|"Bm"B2 B|"D"Ad>A|"Em"BG>F|E/F/G/A/B/c/|H"D"d6||

